icons/private.svg

<svg xmlns="http://www.w3.org/2000/svg" xmlns:xlink="http://www.w3.org/1999/xlink" version="1.0" height="128" width="128" enable-background="new"><defs><linearGradient id="d"><stop offset="0" stop-color="#c0bfbc"/><stop offset=".874" stop-color="#deddda"/><stop offset=".917" stop-color="#b1b0ad"/><stop offset="1" stop-color="#77767b"/></linearGradient><linearGradient id="c"><stop offset="0" stop-color="#241f31"/><stop offset="1" stop-color="#3d3846"/></linearGradient><linearGradient id="b"><stop offset="0" stop-color="#77767b"/><stop offset=".733" stop-color="#9a9996"/><stop offset=".833" stop-color="#f6f5f4"/><stop offset=".933" stop-color="#adacaa"/><stop offset="1" stop-color="#77767b"/></linearGradient><linearGradient gradientUnits="userSpaceOnUse" gradientTransform="translate(351.45 336.28)" y2="869.42" y1="830.88" x2="185.85" x1="147.31" id="a"><stop offset="0" stop-color="#f2f2f2"/><stop offset="1" stop-color="gray" stop-opacity=".8"/></linearGradient><linearGradient y2="881.22" x2="175.59" y1="822.553" x1="175.59" gradientTransform="translate(16.112 15.667) scale(.27273)" gradientUnits="userSpaceOnUse" id="j" xlink:href="#a"/><linearGradient gradientTransform="translate(4 8)" gradientUnits="userSpaceOnUse" y2="202" x2="88" y1="202" x1="58" id="f" xlink:href="#b"/><linearGradient gradientUnits="userSpaceOnUse" y2="250.271" x2="-147.811" y1="188.451" x1="-131.247" id="h" xlink:href="#c"/><radialGradient gradientTransform="matrix(.76735 .00554 -.00541 .75 16.03 44.566)" gradientUnits="userSpaceOnUse" r="36" fy="210.775" fx="64" cy="210.775" cx="64" id="k" xlink:href="#b"/><radialGradient gradientTransform="translate(153.732 -10.87) scale(1.04348)" gradientUnits="userSpaceOnUse" r="46" fy="248.083" fx="-85.993" cy="248.083" cx="-85.993" id="g" xlink:href="#d"/><filter height="1.12" width="1.12" y="-.06" x="-.06" id="i" color-interpolation-filters="sRGB"><feGaussianBlur stdDeviation="1.2"/></filter></defs><g transform="translate(0 -172)"><use height="100%" width="100%" transform="matrix(-1 0 0 1 128 0)" xlink:href="#e"/><path id="e" display="inline" enable-background="new" opacity="1" vector-effect="none" fill="url(#f)" fill-opacity="1" stroke="none" stroke-width="1" stroke-linecap="round" stroke-linejoin="round" stroke-miterlimit="4" stroke-dasharray="none" stroke-dashoffset="0" stroke-opacity=".673" d="M84 204h8v16h-8z"/><circle r="46" cy="252" cx="64" fill="#5e5c64" enable-background="new"/><circle cx="64" cy="250" r="46" fill="url(#g)" enable-background="new"/><circle r="42" cy="250" cx="64" fill="#f6f5f4" enable-background="new"/><circle r="38" cy="-64" cx="250" transform="rotate(90)" fill="#241f31" enable-background="new"/><circle cx="-147.774" cy="219.223" r="36" transform="scale(1 -1) rotate(-15 -1823.935 -819.681)" fill="url(#h)" enable-background="new"/><g fill-rule="evenodd"><path d="m527.04 1123.5-24 48h48z" transform="translate(-67.726 -51.783) scale(.24993)" fill="#1a1a1a" fill-opacity=".4" filter="url(#i)" enable-background="new"/><path d="m64 228-6 12h12z" fill="#ed333b" enable-background="new"/><path d="M63.998 228.003 58 240h5.998z" fill="#fff" fill-opacity=".373" enable-background="new"/></g><circle r="12" cy="252" cx="64" enable-background="new" opacity=".2"/><circle cx="64" cy="250" r="12" enable-background="new" fill="url(#j)"/><circle transform="scale(1 -1)" cx="64" cy="-249" r="11" enable-background="new" fill="#ccc"/><path d="M64 284v-6m0-56v-6m34 34h-6m-56 0h-6m9.958 24.042 4.243-4.243m39.598-39.598 4.243-4.243m0 48.084-4.243-4.243m-39.598-39.598-4.243-4.243" stroke="#f6f5f4" fill="none" stroke-width="2"/><path d="m57.367 283.347.78-3.923m11.706-58.848.78-3.923m26.714 39.98-3.923-.78m-58.848-11.706-3.923-.78m5.077 25.523 3.326-2.223m49.888-33.334 3.326-2.222m-9.38 47.159-2.223-3.326m-33.334-49.888-2.222-3.326m5.878 59.682 1.53-3.696m22.961-55.432 1.531-3.696m18.401 44.423-3.696-1.53M36.284 238.52l-3.696-1.531m0 26.022 3.696-1.53m55.432-22.961 3.696-1.531m-18.401 44.423-1.53-3.696M52.52 222.284l-1.531-3.696M45.11 278.27l2.223-3.326m33.334-49.888 2.222-3.326m9.381 47.16-3.326-2.223m-49.888-33.334-3.326-2.222m-5.077 25.522 3.923-.78m58.848-11.706 3.923-.78m-26.714 39.98-.78-3.923m-11.706-58.848-.78-3.923" stroke="#fff" opacity=".2" fill="none"/><path d="M40 204a24 24 0 0 1 24-24 24 24 0 0 1 24 24" enable-background="new" fill="none" stroke="url(#k)" stroke-width="8" stroke-linejoin="round"/></g></svg>

<svg xmlns="http://www.w3.org/2000/svg" xmlns:xlink="http://www.w3.org/1999/xlink" version="1.0" height="128" width="128" enable-background="new"><defs><linearGradient id="d"><stop offset="0" stop-color="#c0bfbc"/><stop offset=".874" stop-color="#deddda"/><stop offset=".917" stop-color="#b1b0ad"/><stop offset="1" stop-color="#77767b"/></linearGradient><linearGradient id="c"><stop offset="0" stop-color="#241f31"/><stop offset="1" stop-color="#3d3846"/></linearGradient><linearGradient id="b"><stop offset="0" stop-color="#77767b"/><stop offset=".733" stop-color="#9a9996"/><stop offset=".833" stop-color="#f6f5f4"/><stop offset=".933" stop-color="#adacaa"/><stop offset="1" stop-color="#77767b"/></linearGradient><linearGradient gradientTransform="matrix(.25 0 0 .25 -214.534 33.606)" gradientUnits="userSpaceOnUse" y2="951.87" y1="772.97" x2="346.51" x1="167.61" id="f"><stop offset="0" stop-color="#fff" stop-opacity=".4"/><stop offset="1" stop-color="#fff" stop-opacity=".6"/></linearGradient><filter height="1.12" width="1.12" y="-.06" x="-.06" id="j" color-interpolation-filters="sRGB"><feGaussianBlur stdDeviation="1.2"/></filter><linearGradient gradientUnits="userSpaceOnUse" gradientTransform="translate(351.45 336.28)" y2="869.42" y1="830.88" x2="185.85" x1="147.31" id="a"><stop offset="0" stop-color="#f2f2f2"/><stop offset="1" stop-color="gray" stop-opacity=".8"/></linearGradient><linearGradient y2="881.22" x2="175.59" y1="822.553" x1="175.59" gradientTransform="matrix(.27273 0 0 .27273 16.112 15.667)" gradientUnits="userSpaceOnUse" id="k" xlink:href="#a"/><linearGradient gradientTransform="translate(4 8)" gradientUnits="userSpaceOnUse" y2="202" x2="88" y1="202" x1="58" id="g" xlink:href="#b"/><linearGradient gradientUnits="userSpaceOnUse" y2="250.271" x2="-147.811" y1="188.451" x1="-131.247" id="i" xlink:href="#c"/><radialGradient gradientTransform="matrix(.76735 .00554 -.00541 .75 16.03 44.566)" gradientUnits="userSpaceOnUse" r="36" fy="210.775" fx="64" cy="210.775" cx="64" id="l" xlink:href="#b"/><radialGradient gradientTransform="matrix(1.04348 0 0 1.04348 153.732 -10.87)" gradientUnits="userSpaceOnUse" r="46" fy="248.083" fx="-85.993" cy="248.083" cx="-85.993" id="h" xlink:href="#d"/></defs><g transform="translate(0 -172)"><use height="100%" width="100%" transform="matrix(-1 0 0 1 128 0)" xlink:href="#e"/><path id="e" display="inline" enable-background="new" opacity="1" vector-effect="none" fill="url(#g)" fill-opacity="1" stroke="none" stroke-width="1" stroke-linecap="round" stroke-linejoin="round" stroke-miterlimit="4" stroke-dasharray="none" stroke-dashoffset="0" stroke-opacity=".673" d="M84 204h8v16h-8z"/><circle r="46" cy="252" cx="64" fill="#5e5c64" enable-background="new"/><circle cx="64" cy="250" r="46" fill="url(#h)" enable-background="new"/><circle r="42" cy="250" cx="64" fill="#f6f5f4" enable-background="new"/><circle r="38" cy="-64" cx="250" transform="rotate(90)" fill="#241f31" enable-background="new"/><circle cx="-147.774" cy="219.223" r="36" transform="scale(1 -1) rotate(-15 -1823.935 -819.681)" fill="url(#i)" enable-background="new"/><g fill-rule="evenodd"><path d="M527.04 1123.5l-24 48h48z" transform="translate(-67.726 -51.783) scale(.24993)" fill="#1a1a1a" fill-opacity=".4" filter="url(#j)" enable-background="new"/><path d="M64 228l-6 12h12z" fill="#ed333b" enable-background="new"/><path d="M63.998 228.003L58 240h5.998z" fill="#fff" fill-opacity=".373" enable-background="new"/></g><circle r="12" cy="252" cx="64" enable-background="new" opacity=".2"/><circle cx="64" cy="250" r="12" enable-background="new" fill="url(#k)"/><circle transform="scale(1 -1)" cx="64" cy="-249" r="11" enable-background="new" fill="#ccc"/><g stroke="#f6f5f4" fill="none" stroke-width="2"><path d="M64 284v-6M64 222v-6M98 250h-6M36 250h-6M39.958 274.042l4.243-4.243M83.799 230.201l4.243-4.243M88.042 274.042l-4.243-4.243M44.201 230.201l-4.243-4.243"/></g><g stroke="#fff" opacity=".2" fill="none"><path d="M57.367 283.347l.78-3.923M69.853 220.576l.78-3.923M97.347 256.633l-3.923-.78M34.576 244.147l-3.923-.78M35.73 268.89l3.326-2.223M88.944 233.333l3.326-2.222M82.89 278.27l-2.223-3.326M47.333 225.056l-2.222-3.326M50.989 281.412l1.53-3.696M75.48 222.284l1.531-3.696M95.412 263.011l-3.696-1.53M36.284 238.52l-3.696-1.531M32.588 263.011l3.696-1.53M91.716 238.52l3.696-1.531M77.011 281.412l-1.53-3.696M52.52 222.284l-1.531-3.696M45.11 278.27l2.223-3.326M80.667 225.056l2.222-3.326M92.27 268.89l-3.326-2.223M39.056 233.333l-3.326-2.222M30.653 256.633l3.923-.78M93.424 244.147l3.923-.78M70.633 283.347l-.78-3.923M58.147 220.576l-.78-3.923"/></g><path d="M40 204a24 24 0 0 1 24-24 24 24 0 0 1 24 24" enable-background="new" fill="none" stroke="url(#l)" stroke-width="8" stroke-linejoin="round"/></g></svg>
